!!!!SEGMENT: pl-stab--27c--001-007_nowakiewicz-kazimierz--missa-in-b-pleni-sunt.krn
!!!cenid: 18xx:3456
!!!COM: Nowakiewicz, Kazimierz
!!!COM-rismID: pe30020309
!!!CDT: <1800->1824
!!!CNT: Polish
!!!OPR: Missa in B
!!!OTL: Pleni sunt
!!!OMV: 007
!!!PDT:
!!!AGN: Sacred; Mass
!!!YEC: Copyright 2022 Narodowy Instytut Fryderyka Chopina (https://polishscores.org)
!!!YEM: License CC-BY-4.0 (https://creativecommons.org/licenses/by/4.0)
!!!SMS-siglum: PL-STAb
!!!SMS-shelfmark: 27c
!!!SMS-shelfwork: 001-007 M
!!!SMS-variant:
!!!SMS-altvar:
!!!NIFC-rismSourceID: 301050705
!!!NIFC-rismChildID: 301050705
!!!NIFC-islandoraID: pl-stab:3750
!!!URL-pdf-islandora: https://repozytorium.nifc.pl/islandora/object/pl-stab%3A3750/datastream/PDF/view
!!!URL-scan: https://polish.musicsources.pl/pl/lokalizacje/galeria/rekopisy/4473 @EN{Scan on Polish Music Sources Website} @PL{Skany w portalu Dziedzictwo Muzyki Polskiej w otwartym dostępie}
!!!IIIF:
!!!ONB-nifc: UWAGA: części Mszy: 1. Kyrie, 2. Gloria, 3. Credo, 4. Et incarnatus, 5. Et resurrexit, 6. Sanctus, 7. Pleni sunt, 8. Benedictus, 9. Agnus Dei, 10. Dona nobis
!!!AIN: 1 alto 1 bass 2 clars 2 cor 1 organ 1 soprn 1 tenor 2 violn
!!!OMD:
!!!OMD-mod: Allegro
!!!key: B-
**kern	**fba	**kern	**kern	**kern	**text	**mod-text	**kern	**text	**mod-text	**kern	**text	**mod-text	**kern	**text	**mod-text	**kern	**dynam	**kern	**dynam	**kern	**kern
*group5	*	*group4	*group4	*group3	*	*	*group3	*	*	*group3	*	*	*group3	*	*	*group2	*	*group2	*	*group1	*group1
*part11	*	*part10	*part9	*part8	*	*	*part7	*	*	*part6	*	*	*part5	*	*	*part4	*	*part3	*	*part2	*part1
*staff11	*	*staff10	*staff9	*staff8	*	*	*staff7	*	*	*staff6	*	*	*staff5	*	*	*staff4	*	*staff3	*	*staff2	*staff1
*IGcont	*	*	*	*IGcoro	*	*	*IGcoro	*	*	*IGcoro	*	*	*IGcoro	*	*	*	*	*	*	*	*
*ICklav	*	*ICstr	*ICstr	*ICvox	*	*	*ICvox	*	*	*ICvox	*	*	*ICvox	*	*	*ICbrass	*	*ICbrass	*	*ICww	*ICww
*Iorgan	*	*Ivioln	*Ivioln	*Ibass	*	*	*Itenor	*	*	*Ialto	*	*	*Isoprn	*	*	*Icor	*	*Icor	*	*Iclars	*Iclars
*I"Organo	*	*I"Violino Secundo	*I"Violino Primo	*I"Baſso	*	*	*I"Tenore	*	*	*I"Alto	*	*	*I"Canto	*	*	*I"Cornu Secundo in B.	*	*I"Cornu Primo in B.	*	*I"Clarinetto 2do in B.	*I"Clarinetto Primo in B.
*mI"Organo	*	*mI"Violino II	*mI"Violino I	*mI"Basso	*	*	*mI"Tenore	*	*	*mI"Alto	*	*	*mI"Soprano	*	*	*mI"Corno II in Bb	*	*mI"Corno I in Bb	*	*mI"Clarinetto II in Bb	*mI"Clarinetto I in Bb
*I'org	*	*I'vl II	*I'vl I	*I'B	*	*	*I'T	*	*	*I'A	*	*	*I'S	*	*	*I'cor II in Bb	*	*I'cor I in Bb	*	*I'cl II in Bb	*I'cl I in Bb
*clefF4	*	*clefG2	*clefG2	*clefF4	*	*	*clefC4	*	*	*clefC3	*	*	*clefC1	*	*	*clefG2	*	*clefG2	*	*clefG2	*clefG2
*	*	*	*	*	*	*	*mclefGv2	*	*	*mclefG2	*	*	*mclefG2	*	*	*	*	*	*	*	*
*	*	*	*	*	*	*	*	*	*	*	*	*	*	*	*	*ITrd1c2	*	*ITrd1c2	*	*ITrd1c2	*ITrd1c2
*k[e-b-]	*	*k[b-e-]	*k[b-e-]	*k[b-e-]	*	*	*k[e-b-]	*	*	*k[e-b-]	*	*	*k[b-e-]	*	*	*k[b-e-]	*	*k[b-e-]	*	*k[b-e-]	*k[b-e-]
*	*	*	*	*	*	*	*mk[b-e-]	*	*	*mk[b-e-]	*	*	*	*	*	*	*	*	*	*	*
*B-:	*	*B-:	*B-:	*B-:	*	*	*B-:	*	*	*B-:	*	*	*B-:	*	*	*B-:	*	*B-:	*	*B-:	*B-:
*M4/4	*	*M4/4	*M4/4	*M4/4	*	*	*M4/4	*	*	*M4/4	*	*	*M4/4	*	*	*M4/4	*	*M4/4	*	*M4/4	*M4/4
*met(c)	*	*met(c)	*met(c)	*met(c)	*	*	*met(c)	*	*	*met(c)	*	*	*met(c)	*	*	*met(c)	*	*met(c)	*	*met(c)	*met(c)
*mmet(c)	*	*mmet(c)	*mmet(c)	*mmet(c)	*	*	*mmet(c)	*	*	*mmet(c)	*	*	*mmet(c)	*	*	*mmet(c)	*	*mmet(c)	*	*mmet(c)	*mmet(c)
*2\right	*	*2\right	*2\right	*2\right	*	*	*2\right	*	*	*2\right	*	*	*2\right	*	*	*2\right	*	*2\right	*	*2\right	*2\right
=1	=1	=1	=1	=1	=1	=1	=1	=1	=1	=1	=1	=1	=1	=1	=1	=1	=1	=1	=1	=1	=1
*	*	*tremolo	*	*	*	*	*	*	*	*	*	*	*	*	*	*	*	*	*	*	*
!!LO:TX:t=P:problem:metrum C. (z wyj. cor II)
!	!	!	!	!	!	!	!	!	!	!	!	!	!	!	!	!	!LO:MO:null:mod=!LO&colon;DY&colon;ed=brack	!	!	!	!
!	!	!	!	!	!	!	!	!	!	!	!	!	!	!	!	!	!	!	!	!	!
!LO:TX:a:t=allo:rj:mod=	!	!LO:TX:a:t=allo:rj:mod=	!LO:TX:a:t=allo:rj:mod=	!LO:TX:a:t=allo:rj:mod=	!	!	!LO:TX:a:t=allo:rj:mod=	!	!	!	!	!	!LO:TX:a:t=allo:rj:mod=	!	!	!LO:TX:a:t=allo:rj:mod=	!LO:MO:null:mod=f	!LO:TX:a:t=allo:rj:mod=	!LO:DY:a:t=for	!LO:TX:a:t=allo:rj:mod=	!LO:TX:a:t=allo:rj:mod=
4B-\	.	16b-LL 16d/	4b-\	4B-\	Ple-	Ple-	4d\	Ple-	Ple-	4f\	Ple-	Ple-	4b-\	Ple-	Ple-	4d/	.	4b-\	f	4b-\	4dd\
.	.	16b- 16d/	.	.	.	.	.	.	.	.	.	.	.	.	.	.	.	.	.	.	.
.	.	16b- 16d/	.	.	.	.	.	.	.	.	.	.	.	.	.	.	.	.	.	.	.
.	.	16b-JJ 16d/	.	.	.	.	.	.	.	.	.	.	.	.	.	.	.	.	.	.	.
.	.	.	16qqdd/	.	.	.	.	.	.	.	.	.	.	.	.	.	.	.	.	.	.
4F\	5 3	16aLL 16f/	8cc\L	8F\	-ni	-ni	8c\	-ni	-ni	8f\	-ni	-ni	8cc\	-ni	-ni	4f/	.	4cc\	.	4a\	4cc\
.	.	16a 16f/	.	.	.	.	.	.	.	.	.	.	.	.	.	.	.	.	.	.	.
.	.	16a 16f/	16b-\L	8F\	sunt	sunt	8c\	sunt	sunt	8f\	sunt	sunt	8cc\	sunt	sunt	.	.	.	.	.	.
.	.	16aJJ 16f/	16cc\JJ	.	.	.	.	.	.	.	.	.	.	.	.	.	.	.	.	.	.
4B-\	.	16b-LL 16f/	4dd\	4B-\	Ce-	cae-	4B-\	ce-	cae-	2f\	ce-	cae-	4dd\	ce-	cae-	4b-\	.	4dd\	.	4b-\	4dd\
.	.	16b- 16f/	.	.	.	.	.	.	.	.	.	.	.	.	.	.	.	.	.	.	.
.	.	16b- 16f/	.	.	.	.	.	.	.	.	.	.	.	.	.	.	.	.	.	.	.
.	.	16b-JJ 16f/	.	.	.	.	.	.	.	.	.	.	.	.	.	.	.	.	.	.	.
.	.	.	16qqff/	.	.	.	.	.	.	.	.	.	.	.	.	.	.	.	.	.	.
4F\	7 5	16cc\LL	8ee-\L	4F\	.	.	4c\	.	.	.	.	.	4ee-\	.	.	4f/	.	4ee-\	.	4cc\	4ee-\
.	.	16cc\	.	.	.	.	.	.	.	.	.	.	.	.	.	.	.	.	.	.	.
.	.	16cc\	16dd\L	.	.	.	.	.	.	.	.	.	.	.	.	.	.	.	.	.	.
.	.	16cc\JJ	16ee-\JJ	.	.	.	.	.	.	.	.	.	.	.	.	.	.	.	.	.	.
*	*	*Xtremolo	*	*	*	*	*	*	*	*	*	*	*	*	*	*	*	*	*	*	*
=2	=2	=2	=2	=2	=2	=2	=2	=2	=2	=2	=2	=2	=2	=2	=2	=2	=2	=2	=2	=2	=2
4BB-/	.	4b- 4d/	4dd\	4BB-/	-li	-li	4B-\	-li	-li	4f\	-li	-li	4dd\	-li	-li	4b-\	.	4dd\	.	4b-\	4dd\
4r	.	8g/L	8bb-\L	4r	.	.	4r	.	.	4r	.	.	4r	.	.	4r	.	4r	.	4r	4r
.	.	16f/L	16aa\L	.	.	.	.	.	.	.	.	.	.	.	.	.	.	.	.	.	.
.	.	16e-/JJ	16gg\JJ	.	.	.	.	.	.	.	.	.	.	.	.	.	.	.	.	.	.
2r	.	4d/	4ff\	2r	.	.	2r	.	.	2r	.	.	2r	.	.	2r	.	2r	.	2r	2r
.	.	.	16qqaa/	.	.	.	.	.	.	.	.	.	.	.	.	.	.	.	.	.	.
.	.	8e-/L	8gg\L	.	.	.	.	.	.	.	.	.	.	.	.	.	.	.	.	.	.
.	.	16d/L	16ff\L	.	.	.	.	.	.	.	.	.	.	.	.	.	.	.	.	.	.
.	.	16c/JJ	16ee-\JJ	.	.	.	.	.	.	.	.	.	.	.	.	.	.	.	.	.	.
=3	=3	=3	=3	=3	=3	=3	=3	=3	=3	=3	=3	=3	=3	=3	=3	=3	=3	=3	=3	=3	=3
4BB-/	.	4f/	4dd\	4B-\	et	et	2B-\	et	et	4f\	et	et	4dd\	et	et	2b-\	.	4dd\	.	4dd\	4ff\
.	.	.	16qqff/	.	.	.	.	.	.	.	.	.	.	.	.	.	.	.	.	.	.
4E-\	6	8g/L	8ee-\L	4E-\	ter-	ter-	.	.	.	4g\	ter-	ter-	4ee-\	.	.	.	.	4ee-\	.	8ee-\L	8gg\L
.	.	16f/L	16dd\L	.	.	.	.	.	.	.	.	.	.	.	.	.	.	.	.	8cc\J	8ee-\J
.	.	16e-/JJ	16cc\JJ	.	.	.	.	.	.	.	.	.	.	.	.	.	.	.	.	.	.
4F\	.	4d/	4b-\	2F\	.	.	4B-\	ter-	ter-	2f\	.	.	4dd\	ter-	ter-	4b-\	.	4dd\	.	4b-\	4dd\
.	.	.	16qqdd/	.	.	.	.	.	.	.	.	.	.	.	.	.	.	.	.	.	.
4FF/	.	8e-/L	8cc\L	.	.	.	4c\	.	.	.	.	.	4cc\	.	.	4f/	.	4cc\	.	8cc\L	8ee-\L
.	.	16d/L	16b-\L	.	.	.	.	.	.	.	.	.	.	.	.	.	.	.	.	8a\J	8cc\J
.	.	16c/JJ	16a\JJ	.	.	.	.	.	.	.	.	.	.	.	.	.	.	.	.	.	.
=4	=4	=4	=4	=4	=4	=4	=4	=4	=4	=4	=4	=4	=4	=4	=4	=4	=4	=4	=4	=4	=4
4BB-/	.	4b- 4d/	4b-\	4BB-/	-ra	-ra,	4d\	-ra	-ra,	4f\	-ra	-ra,	4b-\	-ra	-ra,	4d/	.	4b-\	.	4b-\	4dd\
4r	.	8g/L	8bb-\L	4r	.	.	4r	.	.	4r	.	.	4r	.	.	4r	.	4r	.	4r	4r
.	.	16f/L	16aa\L	.	.	.	.	.	.	.	.	.	.	.	.	.	.	.	.	.	.
.	.	16e-/JJ	16gg\JJ	.	.	.	.	.	.	.	.	.	.	.	.	.	.	.	.	.	.
2r	.	4d/	4ff\	2r	.	.	2r	.	.	2r	.	.	2r	.	.	2r	.	2r	.	2r	2r
.	.	.	16qqaa/	.	.	.	.	.	.	.	.	.	.	.	.	.	.	.	.	.	.
.	.	8e-/L	8gg\L	.	.	.	.	.	.	.	.	.	.	.	.	.	.	.	.	.	.
.	.	16d/L	16ff\L	.	.	.	.	.	.	.	.	.	.	.	.	.	.	.	.	.	.
.	.	16c/JJ	16ee-\JJ	.	.	.	.	.	.	.	.	.	.	.	.	.	.	.	.	.	.
!	!	!	!LO:LB:g=original	!	!	!	!	!	!	!	!	!	!	!	!	!	!	!	!	!	!
=5	=5	=5	=5	=5	=5	=5	=5	=5	=5	=5	=5	=5	=5	=5	=5	=5	=5	=5	=5	=5	=5
*	*	*	*	*	*ij	*ij	*	*ij	*ij	*	*ij	*ij	*	*ij	*ij	*	*	*	*	*	*
4B-\	.	4f/	4dd\	4B-\	et	et	2B-\	et	et	4f\	et	et	4dd\	et	et	2b-\	.	4dd\	.	4dd\	4ff\
.	.	.	16qqff/	.	.	.	.	.	.	.	.	.	.	.	.	.	.	.	.	.	.
4E-\	6	8g/L	8ee-\L	4E-\	ter-	ter-	.	.	.	4g\	ter-	ter-	4ee-\	.	.	.	.	4ee-\	.	8ee-\L	8gg\L
.	.	16f/L	16dd\L	.	.	.	.	.	.	.	.	.	.	.	.	.	.	.	.	8cc\J	8ee-\J
.	.	16e-/JJ	16cc\JJ	.	.	.	.	.	.	.	.	.	.	.	.	.	.	.	.	.	.
!	!	!LO:LB:g=original	!	!	!	!	!	!	!	!	!	!	!	!	!	!	!	!	!	!	!
4F\	4	4d/	4b-\	2F\	.	.	4B-\	ter-	ter-	2f\	.	.	4dd\	ter-	ter-	4b-\	.	4dd\	.	4b-\	4dd\
.	.	.	16qqdd/	.	.	.	.	.	.	.	.	.	.	.	.	.	.	.	.	.	.
4FF/	3	8e-/L	8cc\L	.	.	.	4c\	.	.	.	.	.	4cc\	.	.	4f/	.	4cc\	.	4a\	4cc\
.	.	16d/L	16b-\L	.	.	.	.	.	.	.	.	.	.	.	.	.	.	.	.	.	.
.	.	16c/JJ	16a\JJ	.	.	.	.	.	.	.	.	.	.	.	.	.	.	.	.	.	.
!	!	!	!	!	!	!	!	!	!	!	!	!	!	!	!	!	!	!LO:LB:g=original	!	!	!
=6	=6	=6	=6	=6	=6	=6	=6	=6	=6	=6	=6	=6	=6	=6	=6	=6	=6	=6	=6	=6	=6
4BB-/	.	4d/	8b-\L	4BB-/	-ra	-ra	4d\	-ra	-ra	4f\	-ra	-ra	4b-\	-ra	-ra	4d/	.	4b-\	.	4b-\	4b-\
*	*	*	*	*	*Xij	*Xij	*	*Xij	*Xij	*	*Xij	*Xij	*	*Xij	*Xij	*	*	*	*	*	*
.	.	.	16cc\L	.	.	.	.	.	.	.	.	.	.	.	.	.	.	.	.	.	.
.	.	.	16dd\JJ	.	.	.	.	.	.	.	.	.	.	.	.	.	.	.	.	.	.
4r	.	4r	16ee-\LL	4r	.	.	4r	.	.	4r	.	.	4r	.	.	4r	.	4r	.	4r	4r
.	.	.	16ff\	.	.	.	.	.	.	.	.	.	.	.	.	.	.	.	.	.	.
.	.	.	16gg\	.	.	.	.	.	.	.	.	.	.	.	.	.	.	.	.	.	.
.	.	.	16aa\JJ	.	.	.	.	.	.	.	.	.	.	.	.	.	.	.	.	.	.
2r	.	2r	8bb-\L	2r	.	.	2r	.	.	2r	.	.	2r	.	.	2r	.	2r	.	2r	2r
.	.	.	8ff\J	.	.	.	.	.	.	.	.	.	.	.	.	.	.	.	.	.	.
.	.	.	8dd\L	.	.	.	.	.	.	.	.	.	.	.	.	.	.	.	.	.	.
.	.	.	8b-\J	.	.	.	.	.	.	.	.	.	.	.	.	.	.	.	.	.	.
!	!	!	!	!LO:LB:g=original	!	!	!LO:LB:g=original	!	!	!	!	!	!	!	!	!	!	!	!	!	!
=7	=7	=7	=7	=7	=7	=7	=7	=7	=7	=7	=7	=7	=7	=7	=7	=7	=7	=7	=7	=7	=7
*	*	*tremolo	*	*	*	*	*	*	*	*	*	*	*	*	*	*	*	*	*	*	*
!	!	!	!	!	!	!	!	!	!	!	!	!	!	!	!	!LO:TX:t=P:problem=tu brak tt. 7-9	!	!	!	!	!
8F\L	.	16f/LL	4a 4f/	4e-\	Glo-	glo-	4c\	glo-	glo-	4f\	glo-	glo-	4a\	glo-	glo-	1ryy	.	4f/	.	4cc\	1ff
.	.	16f/	.	.	.	.	.	.	.	.	.	.	.	.	.	.	.	.	.	.	.
8e-\	2	16f/	.	.	.	.	.	.	.	.	.	.	.	.	.	.	.	.	.	.	.
.	.	16f/	.	.	.	.	.	.	.	.	.	.	.	.	.	.	.	.	.	.	.
!	!	!	!	!	!	!	!	!	!	!LO:LB:g=original	!	!	!	!	!	!	!	!	!	!	!
8d\	6	16f/	4b- 4f/	8B-\	-ri-	-ri-	4B-\	-ri-	-ri-	8f\	-ri-	-ri-	8b-\	-ri-	-ri-	.	.	4b-\	.	4dd\	.
.	.	16f/	.	.	.	.	.	.	.	.	.	.	.	.	.	.	.	.	.	.	.
8D\J	.	16f/	.	8B-\	-a	-a	.	.	.	8f\	-a	-a	8b-\	-a	-a	.	.	.	.	.	.
.	.	16f/JJ	.	.	.	.	.	.	.	.	.	.	.	.	.	.	.	.	.	.	.
!LO:TX:t=P:problem=mixed beam	!	!	!	!	!	!	!	!	!	!	!	!	!	!	!	!	!	!	!	!	!
8C/L	6	16f/LL	4ee- 4f/	4c\	tu-	tu-	4A\	-a	-a	2f\	tu-	tu-	4ee-\	tu-	tu-	.	.	4cc\	.	4ee-\	.
.	.	16f/	.	.	.	.	.	.	.	.	.	.	.	.	.	.	.	.	.	.	.
8c\	.	16f/	.	.	.	.	.	.	.	.	.	.	.	.	.	.	.	.	.	.	.
.	.	16f/	.	.	.	.	.	.	.	.	.	.	.	.	.	.	.	.	.	.	.
8BB-/	.	16f/	4dd 4f/	4B-\	.	.	4B-\	tu-	tu-	.	.	.	4dd\	-a	-a	.	.	4dd\	.	4dd\	.
.	.	16f/	.	.	.	.	.	.	.	.	.	.	.	.	.	.	.	.	.	.	.
8B-\J	.	16f/	.	.	.	.	.	.	.	.	.	.	.	.	.	.	.	.	.	.	.
.	.	16f/JJ	.	.	.	.	.	.	.	.	.	.	.	.	.	.	.	.	.	.	.
!LO:LB:g=original	!	!	!	!	!	!	!	!	!	!	!	!	!LO:LB:g=original	!	!	!	!	!	!	!LO:LB:g=original	!
=8	=8	=8	=8	=8	=8	=8	=8	=8	=8	=8	=8	=8	=8	=8	=8	=8	=8	=8	=8	=8	=8
4AA/	.	16f/LL	4cc 4f/	4A\	.	.	4c\	.	.	4f\	-a	-a	4cc\	glo-	glo-	1ryy	.	4cc\	.	4cc\	2.ff\
.	.	16f/	.	.	.	.	.	.	.	.	.	.	.	.	.	.	.	.	.	.	.
.	.	16f/	.	.	.	.	.	.	.	.	.	.	.	.	.	.	.	.	.	.	.
.	.	16f/	.	.	.	.	.	.	.	.	.	.	.	.	.	.	.	.	.	.	.
4F\	n	16f/	16ff\LL	4F\	.	.	4A\	.	.	4r	.	.	8ee-\	-ri-	-ri-	.	.	4cc\	.	4ee-\	.
.	.	16f/	16ee-\	.	.	.	.	.	.	.	.	.	.	.	.	.	.	.	.	.	.
.	.	16f/	16dd\	.	.	.	.	.	.	.	.	.	8ee-\	-a	-a	.	.	.	.	.	.
.	.	16f/JJ	16ee-\JJ	.	.	.	.	.	.	.	.	.	.	.	.	.	.	.	.	.	.
*	*	*	*	*	*	*	*	*	*	*	*ij	*ij	*	*	*	*	*	*	*	*	*
4B-\	.	16f/LL	4dd\	4B-\	.	.	4B-\	.	.	2f\	tu-	tu-	4dd\	tu-	tu-	.	.	4dd\	.	4dd\	.
.	.	16f/	.	.	.	.	.	.	.	.	.	.	.	.	.	.	.	.	.	.	.
.	.	16f/	.	.	.	.	.	.	.	.	.	.	.	.	.	.	.	.	.	.	.
.	.	16f/	.	.	.	.	.	.	.	.	.	.	.	.	.	.	.	.	.	.	.
4e-\	.	16f/	16dd\LL	4E-\	.	.	4c\	.	.	.	.	.	4cc\	.	.	.	.	4cc\	.	4cc\	4aa\
.	.	16f/	16cc\	.	.	.	.	.	.	.	.	.	.	.	.	.	.	.	.	.	.
.	.	16f/	16b-\	.	.	.	.	.	.	.	.	.	.	.	.	.	.	.	.	.	.
.	.	16f/JJ	16cc\JJ	.	.	.	.	.	.	.	.	.	.	.	.	.	.	.	.	.	.
*	*	*Xtremolo	*	*	*	*	*	*	*	*	*	*	*	*	*	*	*	*	*	*	*
!	!	!	!	!	!	!	!	!	!	!	!	!	!	!	!	!	!	!	!	!	!LO:LB:g=original
=9	=9	=9	=9	=9	=9	=9	=9	=9	=9	=9	=9	=9	=9	=9	=9	=9	=9	=9	=9	=9	=9
4d\	.	4f/	8b-\L	4D\	-a	-a,	4d\	-a	-a,	4f\	-a	-a.	4b-\	-a	-a,	1ryy	.	4b-\	.	4b-\	4bb-\
*	*	*	*	*	*	*	*	*	*	*	*Xij	*Xij	*	*	*	*	*	*	*	*	*
.	.	.	16cc\L	.	.	.	.	.	.	.	.	.	.	.	.	.	.	.	.	.	.
.	.	.	16dd\JJ	.	.	.	.	.	.	.	.	.	.	.	.	.	.	.	.	.	.
4r	.	4r	16ee-\LL	4r	.	.	4r	.	.	4r	.	.	4r	.	.	.	.	4r	.	4r	4r
.	.	.	16ff\	.	.	.	.	.	.	.	.	.	.	.	.	.	.	.	.	.	.
.	.	.	16gg\	.	.	.	.	.	.	.	.	.	.	.	.	.	.	.	.	.	.
.	.	.	16aa\JJ	.	.	.	.	.	.	.	.	.	.	.	.	.	.	.	.	.	.
!	!	!	!LO:LB:g=original	!	!	!	!	!	!	!	!	!	!	!	!	!	!	!	!	!	!
2r	.	2r	8bb-\L	2r	.	.	2r	.	.	2r	.	.	2r	.	.	.	.	2r	.	2r	2r
.	.	.	8ff\J	.	.	.	.	.	.	.	.	.	.	.	.	.	.	.	.	.	.
.	.	.	8dd\L	.	.	.	.	.	.	.	.	.	.	.	.	.	.	.	.	.	.
.	.	.	8b-\J	.	.	.	.	.	.	.	.	.	.	.	.	.	.	.	.	.	.
=10	=10	=10	=10	=10	=10	=10	=10	=10	=10	=10	=10	=10	=10	=10	=10	=10	=10	=10	=10	=10	=10
*	*	*tremolo	*	*	*	*	*	*	*	*	*	*	*	*ij	*ij	*	*	*	*	*	*
4e-\	4 2	16f/LL	4a 4f/	4e-\	Glo-	glo-	4c\	glo-	glo-	2f\	Ple-	Ple-	4a\	glo-	glo-	4f/	.	4f/	.	4cc\	1ff
.	.	16f/	.	.	.	.	.	.	.	.	.	.	.	.	.	.	.	.	.	.	.
.	.	16f/	.	.	.	.	.	.	.	.	.	.	.	.	.	.	.	.	.	.	.
.	.	16f/	.	.	.	.	.	.	.	.	.	.	.	.	.	.	.	.	.	.	.
4d\	6	16f/	4b- 4f/	8d\	-ri-	-ri-	8B-\	-ri-	-ri-	.	.	.	8b-\	-ri-	-ri-	8f/L	.	8f/L	.	4dd\	.
.	.	16f/	.	.	.	.	.	.	.	.	.	.	.	.	.	.	.	.	.	.	.
.	.	16f/	.	8d\	-a	-a	8B-\	-a	-a	.	.	.	8b-\	-a	-a	8f/J	.	8f/J	.	.	.
.	.	16f/JJ	.	.	.	.	.	.	.	.	.	.	.	.	.	.	.	.	.	.	.
4c\	6	16f/LL	4ee- 4f/	4c\	tu-	tu-	4A\	tu-	tu-	4f\	-ni	-ni	4ee-\	tu-	tu-	4f/	.	4f/	.	4ee-\	.
.	.	16f/	.	.	.	.	.	.	.	.	.	.	.	.	.	.	.	.	.	.	.
.	.	16f/	.	.	.	.	.	.	.	.	.	.	.	.	.	.	.	.	.	.	.
.	.	16f/	.	.	.	.	.	.	.	.	.	.	.	.	.	.	.	.	.	.	.
4B-\	.	16f/	4dd 4f/	4B-\	-a	-a,	4B-\	-a	-a,	4f\	sunt	sunt	4dd\	-a	-a,	4b-\	.	4b-\	.	4dd\	.
.	.	16f/	.	.	.	.	.	.	.	.	.	.	.	.	.	.	.	.	.	.	.
.	.	16f/	.	.	.	.	.	.	.	.	.	.	.	.	.	.	.	.	.	.	.
.	.	16f/JJ	.	.	.	.	.	.	.	.	.	.	.	.	.	.	.	.	.	.	.
=11	=11	=11	=11	=11	=11	=11	=11	=11	=11	=11	=11	=11	=11	=11	=11	=11	=11	=11	=11	=11	=11
*	*	*	*	*	*ij	*ij	*	*ij	*ij	*	*	*	*	*	*	*	*	*	*	*	*
4A\	6	16f/LL	4cc 4f/	4A\	Glo-	glo-	4c\	glo-	glo-	1f	Ce-	cae-	4cc\	glo-	glo-	4f/	.	4cc\	.	4cc\	1ff
.	.	16f/	.	.	.	.	.	.	.	.	.	.	.	.	.	.	.	.	.	.	.
.	.	16f/	.	.	.	.	.	.	.	.	.	.	.	.	.	.	.	.	.	.	.
.	.	16f/	.	.	.	.	.	.	.	.	.	.	.	.	.	.	.	.	.	.	.
4F\	n	16f/	16ff\LL	8F\	-ri-	-ri-	8A\	-ri-	-ri-	.	.	.	8ee-\	-ri-	-ri-	4cc\	.	4cc\	.	4ee-\	.
.	.	16f/	16ee-\	.	.	.	.	.	.	.	.	.	.	.	.	.	.	.	.	.	.
.	.	16f/	16dd\	8F\	-a	-a	8A\	-a	-a	.	.	.	8ee-\	-a	-a	.	.	.	.	.	.
.	.	16f/JJ	16ee-\JJ	.	.	.	.	.	.	.	.	.	.	.	.	.	.	.	.	.	.
4B-\	.	16f/LL	4dd\	4B-\	tu-	tu-	4B-\	tu-	tu-	.	.	.	4dd\	tu-	tu-	4b-\	.	4dd\	.	4dd\	.
.	.	16f/	.	.	.	.	.	.	.	.	.	.	.	.	.	.	.	.	.	.	.
.	.	16f/	.	.	.	.	.	.	.	.	.	.	.	.	.	.	.	.	.	.	.
.	.	16f/	.	.	.	.	.	.	.	.	.	.	.	.	.	.	.	.	.	.	.
4e-\	4 2	16f/	16dd\LL	4E-\	-a	-a.	4c\	-a	-a.	.	.	.	4cc\	-a	-a.	4f/	.	4cc\	.	4cc\	.
*	*	*	*	*	*Xij	*Xij	*	*Xij	*Xij	*	*	*	*	*Xij	*Xij	*	*	*	*	*	*
.	.	16f/	16cc\	.	.	.	.	.	.	.	.	.	.	.	.	.	.	.	.	.	.
.	.	16f/	16b-\	.	.	.	.	.	.	.	.	.	.	.	.	.	.	.	.	.	.
.	.	16f/JJ	16cc\JJ	.	.	.	.	.	.	.	.	.	.	.	.	.	.	.	.	.	.
!	!	!	!	!LO:LB:g=original	!	!	!	!	!	!	!	!	!	!	!	!LO:LB:g=original	!	!	!	!	!
=12	=12	=12	=12	=12	=12	=12	=12	=12	=12	=12	=12	=12	=12	=12	=12	=12	=12	=12	=12	=12	=12
4d\	6	16b-\LL	(>8b-\L	4D\	Ple-	Ple-	4d\	ple-	Ple-	4f\	-li	-li	4b-\	Ple-	Ple-	4B-/	.	4b-\	.	1b-	2bb-\
.	.	16b-\	.	.	.	.	.	.	.	.	.	.	.	.	.	.	.	.	.	.	.
.	.	16b-\	8bb-\)	.	.	.	.	.	.	.	.	.	.	.	.	.	.	.	.	.	.
.	.	16b-\	.	.	.	.	.	.	.	.	.	.	.	.	.	.	.	.	.	.	.
4B-\	.	16b-\	8bb-|\	4D\	-ni	-ni	4d\	-ni	-ni	4f\	et	et	4b-\	-ni	-ni	8B-/L	.	8b-\L	.	.	.
.	.	16b-\	.	.	.	.	.	.	.	.	.	.	.	.	.	.	.	.	.	.	.
.	.	16b-\	8bb-|\J	.	.	.	.	.	.	.	.	.	.	.	.	8B-/J	.	8b-\J	.	.	.
.	.	16b-\JJ	.	.	.	.	.	.	.	.	.	.	.	.	.	.	.	.	.	.	.
4D\	-	16b-\LL	(8b-\L	4D\	sunt	sunt	4B-\	.	.	4f\	ter-	ter-	4b-\	sunt	sunt	4B-/	.	4b-\	.	.	2aa-X\
.	.	16b-\	.	.	.	.	.	.	.	.	.	.	.	.	.	.	.	.	.	.	.
.	.	16b-\	8aa-X\)	.	.	.	.	.	.	.	.	.	.	.	.	.	.	.	.	.	.
.	.	16b-\	.	.	.	.	.	.	.	.	.	.	.	.	.	.	.	.	.	.	.
4D\	6 5	16b-\	8aa-|\	4D\	.	cae-	4B-\	sunt	sunt	4f\	-ra	-ra	4b-\	ce-	cae-	4B-/	.	4b-\	.	.	.
.	.	16b-\	.	.	.	.	.	.	.	.	.	.	.	.	.	.	.	.	.	.	.
.	.	16b-\	8gg|\J	.	.	.	.	.	.	.	.	.	.	.	.	.	.	.	.	.	.
.	.	16b-\JJ	.	.	.	.	.	.	.	.	.	.	.	.	.	.	.	.	.	.	.
!	!	!	!	!	!	!	!LO:LB:g=original	!	!	!	!	!	!	!	!	!	!	!	!	!	!
=13	=13	=13	=13	=13	=13	=13	=13	=13	=13	=13	=13	=13	=13	=13	=13	=13	=13	=13	=13	=13	=13
!	!	!	!LO:TX:t=P:problem=mixed beam	!	!	!	!	!	!	!	!	!	!	!	!	!	!	!	!	!	!
4E-\	.	16b-\LL	(8gg\L	2E-\	Ce-	.	2B-\	Cae-	cae-	2g\	glo-	glo-	2b-\	.	.	4B-/	.	4b-\	.	2b-\	2gg\
.	.	16b-\	.	.	.	.	.	.	.	.	.	.	.	.	.	.	.	.	.	.	.
.	.	16b-\	8g/)	.	.	.	.	.	.	.	.	.	.	.	.	.	.	.	.	.	.
.	.	16b-\	.	.	.	.	.	.	.	.	.	.	.	.	.	.	.	.	.	.	.
4e-\	.	16b-\	8gg|\	.	.	.	.	.	.	.	.	.	.	.	.	4r	.	4r	.	.	.
.	.	16b-\	.	.	.	.	.	.	.	.	.	.	.	.	.	.	.	.	.	.	.
.	.	16b-\	8gg|\J	.	.	.	.	.	.	.	.	.	.	.	.	.	.	.	.	.	.
.	.	16b-\JJ	.	.	.	.	.	.	.	.	.	.	.	.	.	.	.	.	.	.	.
!	!	!	!LO:TX:t=P:problem=mixed beam	!	!	!	!	!	!	!	!	!	!	!	!	!	!	!	!	!	!
4Bn\	6 5	16a/LL	(8g/L	4Bn\	-li	-li	4f\	-li	-li	4g\	-ri-	-ri-	4dd\	-li	-li	2r	.	2r	.	2dd\	2ff\
.	.	16a/	.	.	.	.	.	.	.	.	.	.	.	.	.	.	.	.	.	.	.
.	.	16a/	8ff\)	.	.	.	.	.	.	.	.	.	.	.	.	.	.	.	.	.	.
.	.	16a/	.	.	.	.	.	.	.	.	.	.	.	.	.	.	.	.	.	.	.
4BBn\	.	16a/	8ff|\	4B\	et	et	4f\	et	et	4g\	-a	-a	4dd\	et	et	.	.	.	.	.	.
.	.	16a/	.	.	.	.	.	.	.	.	.	.	.	.	.	.	.	.	.	.	.
.	.	16a/	8ff|\J	.	.	.	.	.	.	.	.	.	.	.	.	.	.	.	.	.	.
.	.	16a/JJ	.	.	.	.	.	.	.	.	.	.	.	.	.	.	.	.	.	.	.
=14	=14	=14	=14	=14	=14	=14	=14	=14	=14	=14	=14	=14	=14	=14	=14	=14	=14	=14	=14	=14	=14
!	!	!	!LO:TX:t=P:problem=mixed beam	!	!	!	!	!	!	!	!	!	!	!	!	!	!	!	!	!	!
4C/	-	16g/LL	8ee-\L	2c\	ter-	ter-	2e-\	ter-	ter-	2g\	tu-	tu-	2cc\	ter-	ter-	2r	.	2r	.	1cc	1ee-
.	.	16g/	.	.	.	.	.	.	.	.	.	.	.	.	.	.	.	.	.	.	.
.	.	16g/	8e-/	.	.	.	.	.	.	.	.	.	.	.	.	.	.	.	.	.	.
.	.	16g/	.	.	.	.	.	.	.	.	.	.	.	.	.	.	.	.	.	.	.
4c\	.	16g/	8ee-\	.	.	.	.	.	.	.	.	.	.	.	.	.	.	.	.	.	.
.	.	16g/	.	.	.	.	.	.	.	.	.	.	.	.	.	.	.	.	.	.	.
.	.	16g/	8ee-\J	.	.	.	.	.	.	.	.	.	.	.	.	.	.	.	.	.	.
.	.	16g/JJ	.	.	.	.	.	.	.	.	.	.	.	.	.	.	.	.	.	.	.
!	!	!	!LO:LB:g=original	!	!	!	!	!	!	!	!	!	!	!	!	!	!	!	!	!	!
!	!	!	!LO:TX:t=P:problem=mixed beam	!	!	!	!	!	!	!	!	!	!	!	!	!	!	!	!	!	!
4A\	6 5	16f/LL	8ee-\L	2A\	.	.	2c\	-ra	.	2f\	.	.	2ee-\	.	.	2g/	.	2cc\	.	.	.
.	.	16f/	.	.	.	.	.	.	.	.	.	.	.	.	.	.	.	.	.	.	.
.	.	16f/	8f/	.	.	.	.	.	.	.	.	.	.	.	.	.	.	.	.	.	.
.	.	16f/	.	.	.	.	.	.	.	.	.	.	.	.	.	.	.	.	.	.	.
4AA/	.	16f/	8ee-\	.	.	.	.	.	.	.	.	.	.	.	.	.	.	.	.	.	.
.	.	16f/	.	.	.	.	.	.	.	.	.	.	.	.	.	.	.	.	.	.	.
.	.	16f/	8ee-\J	.	.	.	.	.	.	.	.	.	.	.	.	.	.	.	.	.	.
.	.	16f/JJ	.	.	.	.	.	.	.	.	.	.	.	.	.	.	.	.	.	.	.
*	*	*Xtremolo	*	*	*	*	*	*	*	*	*	*	*	*	*	*	*	*	*	*	*
!	!	!	!	!	!	!	!	!	!	!LO:LB:g=original	!	!	!LO:LB:g=original	!	!	!	!	!	!	!	!
=15	=15	=15	=15	=15	=15	=15	=15	=15	=15	=15	=15	=15	=15	=15	=15	=15	=15	=15	=15	=15	=15
4BB-/	.	4f/	16dd\LL	4B-\	-ra	-ra,	4B-\	.	-ra,	4f\	-a	-a,	4dd\	-ra	-ra,	4b-\	.	4dd\	.	4b-\	4dd\
.	.	.	16cc\	.	.	.	.	.	.	.	.	.	.	.	.	.	.	.	.	.	.
.	.	.	16b-\	.	.	.	.	.	.	.	.	.	.	.	.	.	.	.	.	.	.
.	.	.	16a\JJ	.	.	.	.	.	.	.	.	.	.	.	.	.	.	.	.	.	.
4r	.	4r	16b-\LL	4r	.	.	4r	.	.	4r	.	.	4r	.	.	4r	.	4r	.	4r	4r
.	.	.	16cc\	.	.	.	.	.	.	.	.	.	.	.	.	.	.	.	.	.	.
.	.	.	16dd\	.	.	.	.	.	.	.	.	.	.	.	.	.	.	.	.	.	.
.	.	.	16ee-\JJ	.	.	.	.	.	.	.	.	.	.	.	.	.	.	.	.	.	.
*	*	*	*tremolo	*	*	*	*	*	*	*	*	*	*	*	*	*	*	*	*	*	*
2r	.	2r	8ff\L	2r	.	.	2r	.	.	2r	.	.	2r	.	.	2r	.	2r	.	2r	2r
.	.	.	8ff\	.	.	.	.	.	.	.	.	.	.	.	.	.	.	.	.	.	.
.	.	.	8ff\	.	.	.	.	.	.	.	.	.	.	.	.	.	.	.	.	.	.
.	.	.	8ff\J	.	.	.	.	.	.	.	.	.	.	.	.	.	.	.	.	.	.
!!LO:MO:ori
=	=	=	=	=	=	=	=	=	=	=	=	=	=	=	=	=	=	=	=	=	=
!!LO:TX:t=P:problem=zbędna powtórka taktu cor I
1ryy	.	1ryy	1ryy	1ryy	.	.	1ryy	.	.	1ryy	.	.	1ryy	.	.	1ryy	.	4dd\	.	1ryy	1ryy
.	.	.	.	.	.	.	.	.	.	.	.	.	.	.	.	.	.	4r	.	.	.
.	.	.	.	.	.	.	.	.	.	.	.	.	.	.	.	.	.	2r	.	.	.
!	!	!LO:LB:g=original	!	!	!	!	!	!	!	!	!	!	!	!	!	!	!	!LO:LB:g=original	!	!	!
!!LO:MO:end
=16	=16	=16	=16	=16	=16	=16	=16	=16	=16	=16	=16	=16	=16	=16	=16	=16	=16	=16	=16	=16	=16
*	*	*	*^	*	*	*	*	*	*	*	*	*	*	*	*	*	*	*	*	*	*
*	*	*tremolo	*	*	*	*	*	*	*	*	*	*ij	*ij	*	*	*	*	*	*	*	*	*
8F\L	7_ 5_	16f\LL	16ff/LL	16ee-\LL	8F\L	Glo-	glo-	4c\	glo-	glo-	4f\	glo-	glo-	4ee-\	glo-	glo-	1f	.	1cc	.	1ee-	1ff
.	.	16cc\	16ff/	16ee-\	.	.	.	.	.	.	.	.	.	.	.	.	.	.	.	.	.	.
8G\	.	16f\	16ff/	16ee-\	8G\J	.	.	.	.	.	.	.	.	.	.	.	.	.	.	.	.	.
.	.	16cc\	16ff/	16ee-\	.	.	.	.	.	.	.	.	.	.	.	.	.	.	.	.	.	.
8A\	.	16f\	16ff/	16ee-\	8A\	-ri-	-ri-	8c\	-ri-	-ri-	8f\	-ri-	-ri-	8ee-\	-ri-	-ri-	.	.	.	.	.	.
.	.	16cc\	16ff/	16ee-\	.	.	.	.	.	.	.	.	.	.	.	.	.	.	.	.	.	.
8B-\J	.	16f\	16ff/	16ee-\	8B-\	-a	-a	8c\	-a	-a	8f\	-a	-a	8ee-\	-a	-a	.	.	.	.	.	.
.	.	16cc\JJ	16ff/JJ	16ee-\JJ	.	.	.	.	.	.	.	.	.	.	.	.	.	.	.	.	.	.
*	*	*rep	*	*	*	*	*	*	*	*	*	*	*	*	*	*	*	*	*	*	*	*
!LO:LB:g=original	!	!	!	!	!	!	!	!	!	!	!	!	!	!	!	!	!	!	!	!	!	!
8c\L	.	16f\LL	16ff/LL	16ee-\LL	8c\L	tu-	tu-	2c\	tu-	tu-	2f\	tu-	tu-	2ee-\	tu-	tu-	.	.	.	.	.	.
.	.	16cc\	16ff/	16ee-\	.	.	.	.	.	.	.	.	.	.	.	.	.	.	.	.	.	.
8A\	.	16f\	16ff/	16ee-\	8A\	.	.	.	.	.	.	.	.	.	.	.	.	.	.	.	.	.
.	.	16cc\	16ff/	16ee-\	.	.	.	.	.	.	.	.	.	.	.	.	.	.	.	.	.	.
8G\	.	16f\	16ff/	16ee-\	8G\	.	.	.	.	.	.	.	.	.	.	.	.	.	.	.	.	.
.	.	16cc\	16ff/	16ee-\	.	.	.	.	.	.	.	.	.	.	.	.	.	.	.	.	.	.
8F\J	.	16f\	16ff/	16ee-\	8F\J	.	.	.	.	.	.	.	.	.	.	.	.	.	.	.	.	.
.	.	16cc\JJ	16ff/JJ	16ee-\JJ	.	.	.	.	.	.	.	.	.	.	.	.	.	.	.	.	.	.
*	*	*Xrep	*	*	*	*	*	*	*	*	*	*	*	*	*	*	*	*	*	*	*	*
*	*	*	*v	*v	*	*	*	*	*	*	*	*	*	*	*	*	*	*	*	*	*	*
=17	=17	=17	=17	=17	=17	=17	=17	=17	=17	=17	=17	=17	=17	=17	=17	=17	=17	=17	=17	=17	=17
*	*	*Xtremolo	*Xtremolo	*	*	*	*	*	*	*	*	*	*	*	*	*	*	*	*	*	*
4B-\	X X	4b- 4f\	16ff\LL	4B-\	-a	-a.	4B-\	-a	-a.	4f\	-a	-a.	4dd\	-a	-a.	4b-\	.	4dd\	.	4dd\	4ff\
*	*	*	*	*	*	*	*	*	*	*	*Xij	*Xij	*	*	*	*	*	*	*	*	*
.	.	.	16ee-\	.	.	.	.	.	.	.	.	.	.	.	.	.	.	.	.	.	.
.	.	.	16dd\	.	.	.	.	.	.	.	.	.	.	.	.	.	.	.	.	.	.
.	.	.	16cc\JJ	.	.	.	.	.	.	.	.	.	.	.	.	.	.	.	.	.	.
4BB-/	.	4r	16b-\LL	4r	.	.	4r	.	.	4r	.	.	4r	.	.	4r	.	4r	.	4r	4r
.	.	.	16cc\	.	.	.	.	.	.	.	.	.	.	.	.	.	.	.	.	.	.
.	.	.	16dd\	.	.	.	.	.	.	.	.	.	.	.	.	.	.	.	.	.	.
.	.	.	16ee-\JJ	.	.	.	.	.	.	.	.	.	.	.	.	.	.	.	.	.	.
*	*	*	*tremolo	*	*	*	*	*	*	*	*	*	*	*	*	*	*	*	*	*	*
2r	.	2r	8ff\L	2r	.	.	2r	.	.	2r	.	.	2r	.	.	2r	.	2r	.	2r	2r
.	.	.	8ff\	.	.	.	.	.	.	.	.	.	.	.	.	.	.	.	.	.	.
.	.	.	8ff\	.	.	.	.	.	.	.	.	.	.	.	.	.	.	.	.	.	.
.	.	.	8ff\J	.	.	.	.	.	.	.	.	.	.	.	.	.	.	.	.	.	.
!	!	!	!	!LO:LB:g=original	!	!	!	!	!	!	!	!	!	!	!	!	!	!	!	!	!
=18	=18	=18	=18	=18	=18	=18	=18	=18	=18	=18	=18	=18	=18	=18	=18	=18	=18	=18	=18	=18	=18
*	*	*	*^	*	*	*	*	*	*	*	*	*	*	*	*	*	*	*	*	*	*
*	*	*tremolo	*	*	*	*	*	*	*	*	*	*	*	*	*	*	*	*	*	*	*	*
8F\L	7_ 5_	16f\LL	16ff/LL	16ee-\LL	8F\L	O-	Ho-	2c\	O-	Ho-	2f\	O-	Ho-	2ee-\	O-	Ho-	1f	.	1cc	.	1ee-	1ff
.	.	16cc\	16ff/	16ee-\	.	.	.	.	.	.	.	.	.	.	.	.	.	.	.	.	.	.
8G\	.	16f\	16ff/	16ee-\	8G\	.	.	.	.	.	.	.	.	.	.	.	.	.	.	.	.	.
.	.	16cc\	16ff/	16ee-\	.	.	.	.	.	.	.	.	.	.	.	.	.	.	.	.	.	.
8A\	.	16f\	16ff/	16ee-\	8A\	.	.	.	.	.	.	.	.	.	.	.	.	.	.	.	.	.
.	.	16cc\	16ff/	16ee-\	.	.	.	.	.	.	.	.	.	.	.	.	.	.	.	.	.	.
8B-\J	.	16f\	16ff/	16ee-\	8B-\J	.	.	.	.	.	.	.	.	.	.	.	.	.	.	.	.	.
.	.	16cc\JJ	16ff/JJ	16ee-\JJ	.	.	.	.	.	.	.	.	.	.	.	.	.	.	.	.	.	.
*	*	*rep	*	*	*	*	*	*	*	*	*	*	*	*	*	*	*	*	*	*	*	*
8c\L	.	16f\LL	16ff/LL	16ee-\LL	8c\L	.	-san-	2c\	-san-	-san-	2f\	-san-	-san-	2ee-\	-san-	-san-	.	.	.	.	.	.
.	.	16cc\	16ff/	16ee-\	.	.	.	.	.	.	.	.	.	.	.	.	.	.	.	.	.	.
8A\	.	16f\	16ff/	16ee-\	8A\	.	.	.	.	.	.	.	.	.	.	.	.	.	.	.	.	.
.	.	16cc\	16ff/	16ee-\	.	.	.	.	.	.	.	.	.	.	.	.	.	.	.	.	.	.
8G\	.	16f\	16ff/	16ee-\	8G\	-san-	.	.	.	.	.	.	.	.	.	.	.	.	.	.	.	.
.	.	16cc\	16ff/	16ee-\	.	.	.	.	.	.	.	.	.	.	.	.	.	.	.	.	.	.
8F\J	.	16f\	16ff/	16ee-\	8F\J	.	.	.	.	.	.	.	.	.	.	.	.	.	.	.	.	.
.	.	16cc\JJ	16ff/JJ	16ee-\JJ	.	.	.	.	.	.	.	.	.	.	.	.	.	.	.	.	.	.
*	*	*Xrep	*	*	*	*	*	*	*	*	*	*	*	*	*	*	*	*	*	*	*	*
*	*	*	*v	*v	*	*	*	*	*	*	*	*	*	*	*	*	*	*	*	*	*	*
!	!	!	!	!	!	!	!	!	!	!	!	!	!	!	!	!	!	!	!	!LO:LB:g=original	!
=19	=19	=19	=19	=19	=19	=19	=19	=19	=19	=19	=19	=19	=19	=19	=19	=19	=19	=19	=19	=19	=19
*	*	*	*Xtremolo	*	*	*	*	*	*	*	*	*	*	*	*	*	*	*	*	*	*
4B-\	X X	16dd\LL	16dd\LL	4B-\	-na	-na	4d\	-na	-na	4f\	-na	-na	4dd\	-na	-na	4b-\	.	4dd\	.	4dd\	4ff\
.	.	16dd\	16bb-\	.	.	.	.	.	.	.	.	.	.	.	.	.	.	.	.	.	.
.	.	16dd\	16bb-\	.	.	.	.	.	.	.	.	.	.	.	.	.	.	.	.	.	.
.	.	16dd\JJ	16bb-\JJ	.	.	.	.	.	.	.	.	.	.	.	.	.	.	.	.	.	.
*	*	*	*tremolo	*	*	*	*	*	*	*	*	*	*	*	*	*	*	*	*	*	*
4D\	6 -5	16b-\LL	16aa-X\LL	4D\	in	in	4f\	in	in	4a-X\	in	in	2b-\	in	in	4b-\	.	4b-\	.	4ff\	4aa-X\
.	.	16b-\	16aa-\	.	.	.	.	.	.	.	.	.	.	.	.	.	.	.	.	.	.
.	.	16b-\	16aa-\	.	.	.	.	.	.	.	.	.	.	.	.	.	.	.	.	.	.
.	.	16b-\JJ	16aa-\JJ	.	.	.	.	.	.	.	.	.	.	.	.	.	.	.	.	.	.
!	!	!	!LO:LB:g=original	!	!	!	!	!	!	!	!	!	!	!	!	!	!	!	!	!LO:SIC:v:s=4ee-\	!
4E-\	.	16b-\LL	16gg\LL	4E-\	ex-	ex-	4e-\	ex-	ex-	4g\	ex-	ex-	.	.	.	4b-\	.	4b-\	.	4eeX\	4gg\
.	.	16b-\	16gg\	.	.	.	.	.	.	.	.	.	.	.	.	.	.	.	.	.	.
.	.	16b-\	16gg\	.	.	.	.	.	.	.	.	.	.	.	.	.	.	.	.	.	.
.	.	16b-\	16gg\JJ	.	.	.	.	.	.	.	.	.	.	.	.	.	.	.	.	.	.
4D\	6 -5	16b-\	16aa-\LL	4D\	-cel-	.	4f\	.	.	4a-\	-cel-	.	4b-\	ex-	ex-	4b-\	.	4b-\	.	4ff\	4aa-\
.	.	16b-\	16aa-\	.	.	.	.	.	.	.	.	.	.	.	.	.	.	.	.	.	.
.	.	16b-\	16aa-\	.	.	.	.	.	.	.	.	.	.	.	.	.	.	.	.	.	.
.	.	16b-\JJ	16aa-\JJ	.	.	.	.	.	.	.	.	.	.	.	.	.	.	.	.	.	.
!	!	!	!	!	!	!	!	!	!	!	!	!	!	!	!	!	!	!	!	!	!LO:LB:g=original
=20	=20	=20	=20	=20	=20	=20	=20	=20	=20	=20	=20	=20	=20	=20	=20	=20	=20	=20	=20	=20	=20
4E-\	.	16b-\LL	16gg\LL	4E-\	-sis	-cel-	2e-\	-cel-	-cel-	4g\	.	-cel-	4b-\	-cel-	-cel-	4b-\	.	4b-\	.	2ee-X\	4gg\
.	.	16b-\	16gg\	.	.	.	.	.	.	.	.	.	.	.	.	.	.	.	.	.	.
.	.	16b-\	16gg\	.	.	.	.	.	.	.	.	.	.	.	.	.	.	.	.	.	.
.	.	16b-\JJ	16gg\JJ	.	.	.	.	.	.	.	.	.	.	.	.	.	.	.	.	.	.
4C\	6	16ee-\LL	16aan\LL	4C/	o-	.	.	.	.	4an\	-sis	.	4ee-\	.	.	4f/	.	4cc\	.	.	4aan\
.	.	16ee-\	16aa\	.	.	.	.	.	.	.	.	.	.	.	.	.	.	.	.	.	.
.	.	16ee-\	16aa\	.	.	.	.	.	.	.	.	.	.	.	.	.	.	.	.	.	.
.	.	16ee-\JJ	16aa\JJ	.	.	.	.	.	.	.	.	.	.	.	.	.	.	.	.	.	.
!	!	!	!LO:SIC:v:s=16bb-\LL	!	!	!	!	!	!	!	!	!	!	!	!	!	!	!	!	!	!
4D\	6	16dd\LL	16ccc\LL	4D\	-san-	-sis,	4d\	-sis	-sis,	4b-\	O-	-sis,	4dd\	-sis	-sis,	4b-\	.	4dd\	.	4dd\	2bb-\
!	!	!	!LO:SIC:v:s=16bb-\	!	!	!	!	!	!	!	!	!	!	!	!	!	!	!	!	!	!
.	.	16dd\	16ccc\	.	.	.	.	.	.	.	.	.	.	.	.	.	.	.	.	.	.
!	!	!	!LO:SIC:v:s=16bb-\	!	!	!	!	!	!	!	!	!	!	!	!	!	!	!	!	!	!
.	.	16dd\	16ccc\	.	.	.	.	.	.	.	.	.	.	.	.	.	.	.	.	.	.
!	!	!	!LO:SIC:v:s=16bb-\JJ	!	!	!	!	!	!	!	!	!	!	!	!	!	!	!	!	!	!
.	.	16dd\JJ	16ccc\JJ	.	.	.	.	.	.	.	.	.	.	.	.	.	.	.	.	.	.
4G\	6	16b-\LL	16ee-\LL	4G\	.	ho-	4B-\	O-	ho-	4b-\	-san-	ho-	4ee-\	o-	ho-	4r	.	4ee-\	.	4ee-\	.
.	.	16b-\	16ee-\	.	.	.	.	.	.	.	.	.	.	.	.	.	.	.	.	.	.
.	.	16b-\	16ee-\	.	.	.	.	.	.	.	.	.	.	.	.	.	.	.	.	.	.
.	.	16b-\JJ	16ee-\JJ	.	.	.	.	.	.	.	.	.	.	.	.	.	.	.	.	.	.
!	!	!	!	!	!	!	!LO:LB:g=original	!	!	!	!	!	!	!	!	!	!	!	!	!	!
=21	=21	=21	=21	=21	=21	=21	=21	=21	=21	=21	=21	=21	=21	=21	=21	=21	=21	=21	=21	=21	=21
*tremolo	*	*	*	*	*	*	*	*	*	*	*	*	*	*	*	*	*	*	*	*	*
8F\L	6_ 4_	16f\LL	16dd\LL	2F\	.	-san-	2f\	-san-	-san-	2b-\	-na	-san-	2dd\	-san-	-san-	4b-\	.	4dd\	.	1dd	2bb-\
.	.	16dd\	16bb-\	.	.	.	.	.	.	.	.	.	.	.	.	.	.	.	.	.	.
8F\	.	16f\	16dd\	.	.	.	.	.	.	.	.	.	.	.	.	.	.	.	.	.	.
.	.	16dd\	16bb-\	.	.	.	.	.	.	.	.	.	.	.	.	.	.	.	.	.	.
8F\	.	16f\	16dd\	.	.	.	.	.	.	.	.	.	.	.	.	8b-\L	.	8dd\L	.	.	.
.	.	16dd\	16bb-\	.	.	.	.	.	.	.	.	.	.	.	.	.	.	.	.	.	.
8F\J	.	16f\	16dd\	.	.	.	.	.	.	.	.	.	.	.	.	8b-\J	.	8dd\J	.	.	.
.	.	16dd\JJ	16bb-\JJ	.	.	.	.	.	.	.	.	.	.	.	.	.	.	.	.	.	.
8F\L	.	16f\LL	16dd\LL	2F\	-na	-na	2f\	-na	-na	2b-\	in	-na	2dd\	-na	-na	4b-\	.	4dd\	.	.	2bb-\
.	.	16dd\	16bb-\	.	.	.	.	.	.	.	.	.	.	.	.	.	.	.	.	.	.
8F\	.	16f\	16dd\	.	.	.	.	.	.	.	.	.	.	.	.	.	.	.	.	.	.
.	.	16dd\	16bb-\	.	.	.	.	.	.	.	.	.	.	.	.	.	.	.	.	.	.
8F\	.	16f\	16dd\	.	.	.	.	.	.	.	.	.	.	.	.	4r	.	4r	.	.	.
.	.	16dd\	16bb-\	.	.	.	.	.	.	.	.	.	.	.	.	.	.	.	.	.	.
8F\J	.	16f\	16dd\	.	.	.	.	.	.	.	.	.	.	.	.	.	.	.	.	.	.
.	.	16dd\JJ	16bb-\JJ	.	.	.	.	.	.	.	.	.	.	.	.	.	.	.	.	.	.
=22	=22	=22	=22	=22	=22	=22	=22	=22	=22	=22	=22	=22	=22	=22	=22	=22	=22	=22	=22	=22	=22
8FF/L	5 4	16f\LL	16cc\LL	2F\	in	in	2f\	in	in	2b-\	ex-	in	2cc\	in	in	4f/	.	4cc\	.	1cc	2bb-\
.	.	16cc\	16bb-\	.	.	.	.	.	.	.	.	.	.	.	.	.	.	.	.	.	.
8FF/	.	16f\	16cc\	.	.	.	.	.	.	.	.	.	.	.	.	.	.	.	.	.	.
.	.	16cc\	16bb-\	.	.	.	.	.	.	.	.	.	.	.	.	.	.	.	.	.	.
8FF/	.	16f\	16cc\	.	.	.	.	.	.	.	.	.	.	.	.	8f/L	.	8cc\L	.	.	.
.	.	16cc\	16bb-\	.	.	.	.	.	.	.	.	.	.	.	.	.	.	.	.	.	.
8FF/J	.	16f\	16cc\	.	.	.	.	.	.	.	.	.	.	.	.	8f/J	.	8cc\J	.	.	.
.	.	16cc\JJ	16bb-\JJ	.	.	.	.	.	.	.	.	.	.	.	.	.	.	.	.	.	.
*	*	*rep	*	*	*	*	*	*	*	*	*	*	*	*	*	*	*	*	*	*	*
8F\L	3	16f\LL	16cc\LL	2F\	ex-	ex-	2f\	ex-	ex-	2a\	.	ex-	2cc\	ex-	ex-	4f/	.	4cc\	.	.	2aa\
.	.	16cc\	16aa\	.	.	.	.	.	.	.	.	.	.	.	.	.	.	.	.	.	.
8F\	.	16f\	16cc\	.	.	.	.	.	.	.	.	.	.	.	.	.	.	.	.	.	.
.	.	16cc\	16aa\	.	.	.	.	.	.	.	.	.	.	.	.	.	.	.	.	.	.
8F\	.	16f\	16cc\	.	.	.	.	.	.	.	.	.	.	.	.	4r	.	4r	.	.	.
.	.	16cc\	16aa\	.	.	.	.	.	.	.	.	.	.	.	.	.	.	.	.	.	.
8F\J	.	16f\	16cc\	.	.	.	.	.	.	.	.	.	.	.	.	.	.	.	.	.	.
.	.	16cc\JJ	16aa\JJ	.	.	.	.	.	.	.	.	.	.	.	.	.	.	.	.	.	.
*	*	*Xrep	*Xtremolo	*	*	*	*	*	*	*	*	*	*	*	*	*	*	*	*	*	*
*Xtremolo	*	*Xtremolo	*	*	*	*	*	*	*	*	*	*	*	*	*	*	*	*	*	*	*
!	!	!	!	!	!	!	!	!	!	!LO:LB:g=original	!	!	!	!	!	!	!	!	!	!	!
=23	=23	=23	=23	=23	=23	=23	=23	=23	=23	=23	=23	=23	=23	=23	=23	=23	=23	=23	=23	=23	=23
4B-\	.	4dd 4f/	4bb- 4dd\	4B-\	-cel-	-cel-	2f\	-cel-	-cel-	4b-\	-cel-	-cel-	4dd\	-cel-	-cel-	4b-\	.	4dd\	.	4dd\	4bb-\
4F\	.	4cc 4f/	4aa 4cc\	4F\	.	.	.	.	.	4a\	.	.	4cc\	.	.	4f/	.	4cc\	.	4cc\	4aa\
4BB-\	.	4dd 4f/	4bb- 4dd\	4BB-/	-sis	-sis.	4f\	-sis	-sis.	4b-\	-sis	-sis.	4dd\	-sis.	-sis.	4b-\	.	4dd\	.	4dd\	4bb-\
4r	.	4r	4r	4r	.	.	4r	.	.	4r	.	.	4r	.	.	4r	.	4r	.	4r	4r
==24	==24	==24	==24	==24	==24	==24	==24	==24	==24	==24	==24	==24	==24	==24	==24	==24	==24	==24	==24	==24	==24
*-	*-	*-	*-	*-	*-	*-	*-	*-	*-	*-	*-	*-	*-	*-	*-	*-	*-	*-	*-	*-	*-
!!!system-decoration: [(g1)][(g2)][(g3)][(g4)]g5
!!!RDF**kern: | = vertical stroke
!!!RDF**kern: > = above
!!!RDF**kern: < = below
!!!filter-modern: sic -sq | shed -e "s/LO:DY:(a|b|rj)/LO:dy:$1/L" | autostem -r | tie -s | shed -k -e "s/[<>]//g" | shed -e "s/TX(.*):t=P:/tx$1:t=P:/LG" | shed -e "s/^(\d+[\/\\]right)/$1yy/I; s/^(\d+[\/\\]left)/$1yy/I" | shed -e "s/^(X?)rep$/$1REP/I" | modori -m
!!!ENC: Mateusz Solarz
!!!END: 2021-11-23
!!!EED: Krzysztof Stępień
!!!EEV: 2021-12-01
!!!ENC-modern: Katarzyna Serwa
!!!END-modern: 2022-08-29
